icons/file-xml-24.svg

<?xml version="1.0" encoding="UTF-8"?><svg id="icons" xmlns="http://www.w3.org/2000/svg" viewBox="0 0 24 24"><defs><style>.cls-1{fill:none;}.cls-1,.cls-2{stroke-width:0px;}</style></defs><rect class="cls-1" width="24" height="24"/><path class="cls-2" d="M17,11v7h-1v-7h1ZM3.18359,18l1.3161-1.62299,1.31586,1.62299h1.28723l-1.95941-2.41675,2.09485-2.58325h-1.28735l-1.45105,1.78943-1.45081-1.78943h-1.28723l2.0943,2.58319-1.95984,2.41681h1.28735ZM8,13v5h1v-3c0-.55176.44824-1,1-1s1,.44824,1,1v3h1v-3c0-.55176.44824-1,1-1s1,.44824,1,1v3h1v-3c0-1.10254-.89746-2-2-2-.60004,0-1.13306.27136-1.5.69141-.36694-.42004-.89996-.69141-1.5-.69141-.36584,0-.70459.10596-1,.27832v-.27832h-1ZM21,6.70898v16.29102H3v-4h1v3h16v-14h-6V2H4v10h-1V1h12.28998l5.71002,5.70898ZM20,6.79999l-4.79999-4.79999h-.20001v5h5v-.20001Z"/></svg>

<svg xmlns="http://www.w3.org/2000/svg" viewBox="0 0 24 24"><path stroke-width="0" fill="none" d="M0 0h24v24H0z"/><path d="M17 11v7h-1v-7h1zM3.184 18L4.5 16.377 5.816 18h1.287l-1.96-2.417L7.238 13H5.951L4.5 14.79 3.049 13H1.762l2.094 2.583L1.896 18h1.288zM8 13v5h1v-3a1 1 0 0 1 2 0v3h1v-3a1 1 0 0 1 2 0v3h1v-3c0-1.103-.897-2-2-2-.6 0-1.133.271-1.5.691-.367-.42-.9-.691-1.5-.691-.366 0-.705.106-1 .278V13H8zm13-6.291V23H3v-4h1v3h16V8h-6V2H4v10H3V1h12.29L21 6.709zM20 6.8L15.2 2H15v5h5v-.2z" stroke-width="0"/></svg>
